X: 32710
T: Polka Di Bani
R: polka
M: 2/4
K: Gmajor
d|g>d ed|e2zd|B/d/B/d/ Bd|cA zd|
a>d ad|f>f fe|dc BA|BG zd|
g>d ed|e2zd|B/d/B/d/ Bd|cA zd|
a>a ad|f>f fe|dc BA|G2z2|
|:z2ed|B>B Bd|cA AB|c>c cd|
ed dg|g>f fe|f2 ed|A3d|G4:|
z3d|g/d/B/d/ e/d/B/d/|g/d/B/d/ e/d/B/d/|g/d/B/d/ e/d/B/d/|dc cd|
a/d/c/d/ e/d/c/d/|a/d/c/d/ e/d/c/d/|a/d/c/d/ e/d/c/d/|B2zd|
g/d/B/d/ e/d/B/d/|g/d/B/d/ e/d/B/d/|g/d/B/d/ e/d/B/d/|dc c2|
dd ed|.ff fe|dc BA|G4|

